X: 1
T: Jig Set #2
T: More Traditional New England Jigs
P: Roaring Jelly (aka Smash the Windows
C: from R. Miller/New England Fiddlers Repertoire
C: Arr. T. Traub 8-10-03
R: Jig
M: 6/8
K: D
L: 1/8
|: A|"D"DED F2 A|"D"d2 f "A"ecA|"G"G2 B "D"F2 A|"A"E2 F GFE|"D"DED F2 A|"Bm"d2 f "A"ecA|"G"Bgf "A"edc|"D"ded d2 :|
a|"D"a2 f d2 e|"D"f2 g agf|"A"g2 e c2 d|"A"e2 f gfe|"A"a2 f d2 e|"D"f2 g agf|"Em"g2 e "A"cde|"D"d3 dfg|
"D"a2 f d2 e|"D"f2 g agf|"Em"g2 e c2 d|"A"e2 f gfe|"D"fed "Em"gfe|"A"agf "G"bag|"D"fed "A"cde|"D"ded d2 |]
